icons/Rainbow_filled.svg

<svg width="24" height="24" viewBox="0 0 24 24" fill="none" xmlns="http://www.w3.org/2000/svg">
<path fill-rule="evenodd" clip-rule="evenodd" d="M7.69481,6.60636c1.36491,-0.56537 2.82779,-0.85636 4.30519,-0.85636c1.4774,0 2.9403,0.29099 4.3052,0.85636c1.3649,0.56536 2.6051,1.39403 3.6498,2.43869c1.0446,1.04465 1.8733,2.28485 2.4386,3.64975c0.5654,1.3649 0.8564,2.8278 0.8564,4.3052c0,0.6904 -0.5596,1.25 -1.25,1.25c-0.6904,0 -1.25,-0.5596 -1.25,-1.25c0,-1.1491 -0.2263,-2.2869 -0.6661,-3.3485c-0.4397,-1.0616 -1.0842,-2.0262 -1.8967,-2.8387c-0.8125,-0.8125 -1.7771,-1.45702 -2.8387,-1.89675c-1.0616,-0.43972 -2.1994,-0.66605 -3.3485,-0.66605c-1.1491,0 -2.28688,0.22633 -3.34848,0.66605c-1.0616,0.43973 -2.02619,1.08425 -2.8387,1.89675c-0.81252,0.8125 -1.45704,1.7771 -1.89677,2.8387c-0.43972,1.0616 -0.66605,2.1994 -0.66605,3.3485c0,0.6904 -0.55964,1.25 -1.25,1.25c-0.69036,0 -1.25,-0.5596 -1.25,-1.25c0,-1.4774 0.29099,-2.9403 0.85635,-4.3052c0.56537,-1.3649 1.39404,-2.6051 2.4387,-3.64975c1.04466,-1.04466 2.28485,-1.87333 3.64976,-2.43869zM9.22554,10.3019c0.87966,-0.36437 1.82236,-0.5519 2.77446,-0.5519c0.9521,0 1.8948,0.18753 2.7745,0.5519c0.8796,0.3643 1.6788,0.8984 2.352,1.5716c0.6732,0.6732 1.2073,1.4724 1.5716,2.352c0.3644,0.8797 0.5519,1.8224 0.5519,2.7745c0,0.6904 -0.5596,1.25 -1.25,1.25c-0.6904,0 -1.25,-0.5596 -1.25,-1.25c0,-0.6238 -0.1229,-1.2414 -0.3616,-1.8177c-0.2387,-0.5763 -0.5886,-1.1 -1.0296,-1.5411c-0.4411,-0.441 -0.9648,-0.7909 -1.5411,-1.0296c-0.5763,-0.2387 -1.1939,-0.3616 -1.8177,-0.3616c-0.6238,0 -1.2414,0.1229 -1.8177,0.3616c-0.57634,0.2387 -1.09998,0.5886 -1.54106,1.0296c-0.44108,0.4411 -0.79096,0.9648 -1.02967,1.5411c-0.23871,0.5763 -0.36157,1.1939 -0.36157,1.8177c0,0.6904 -0.55964,1.25 -1.25,1.25c-0.69036,0 -1.25,-0.5596 -1.25,-1.25c0,-0.9521 0.18753,-1.8948 0.55187,-2.7745c0.36435,-0.8796 0.89838,-1.6788 1.57161,-2.352c0.67322,-0.6732 1.47245,-1.2073 2.35206,-1.5716zM13.2437,13.9974c0.3943,0.1633 0.7526,0.4027 1.0544,0.7045c0.3018,0.3018 0.5412,0.6601 0.7045,1.0544c0.1633,0.3943 0.2474,0.8169 0.2474,1.2437c0,0.6904 -0.5596,1.25 -1.25,1.25c-0.6904,0 -1.25,-0.5596 -1.25,-1.25c0,-0.0985 -0.0194,-0.196 -0.0571,-0.287c-0.0377,-0.091 -0.0929,-0.1737 -0.1626,-0.2433c-0.0696,-0.0697 -0.1523,-0.1249 -0.2433,-0.1626c-0.091,-0.0377 -0.1885,-0.0571 -0.287,-0.0571c-0.0985,0 -0.196,0.0194 -0.287,0.0571c-0.091,0.0377 -0.1737,0.0929 -0.2433,0.1626c-0.0697,0.0696 -0.1249,0.1523 -0.1626,0.2433c-0.0377,0.091 -0.0571,0.1885 -0.0571,0.287c0,0.6904 -0.5596,1.25 -1.25,1.25c-0.69036,0 -1.25,-0.5596 -1.25,-1.25c0,-0.4268 0.08406,-0.8494 0.24739,-1.2437c0.16333,-0.3943 0.40272,-0.7526 0.70451,-1.0544c0.3018,-0.3018 0.6601,-0.5412 1.0544,-0.7045c0.3943,-0.1633 0.8169,-0.2474 1.2437,-0.2474c0.4268,0 0.8494,0.0841 1.2437,0.2474z" fill="#002B51"/>
</svg>

<svg width="24" height="24" viewBox="0 0 24 24" fill="none" xmlns="http://www.w3.org/2000/svg">
<path fill-rule="evenodd" clip-rule="evenodd" d="M7.69481 6.60636C9.05972 6.04099 10.5226 5.75 12 5.75C13.4774 5.75 14.9403 6.04099 16.3052 6.60636C17.6701 7.17172 18.9103 8.00039 19.955 9.04505C20.9996 10.0897 21.8283 11.3299 22.3936 12.6948C22.959 14.0597 23.25 15.5226 23.25 17C23.25 17.6904 22.6904 18.25 22 18.25C21.3096 18.25 20.75 17.6904 20.75 17C20.75 15.8509 20.5237 14.7131 20.0839 13.6515C19.6442 12.5899 18.9997 11.6253 18.1872 10.8128C17.3747 10.0003 16.4101 9.35578 15.3485 8.91605C14.2869 8.47633 13.1491 8.25 12 8.25C10.8509 8.25 9.71312 8.47633 8.65152 8.91605C7.58992 9.35578 6.62533 10.0003 5.81282 10.8128C5.0003 11.6253 4.35578 12.5899 3.91605 13.6515C3.47633 14.7131 3.25 15.8509 3.25 17C3.25 17.6904 2.69036 18.25 2 18.25C1.30964 18.25 0.75 17.6904 0.75 17C0.75 15.5226 1.04099 14.0597 1.60635 12.6948C2.17172 11.3299 3.00039 10.0897 4.04505 9.04505C5.08971 8.00039 6.3299 7.17172 7.69481 6.60636ZM9.22554 10.3019C10.1052 9.93753 11.0479 9.75 12 9.75C12.9521 9.75 13.8948 9.93753 14.7745 10.3019C15.6541 10.6662 16.4533 11.2003 17.1265 11.8735C17.7997 12.5467 18.3338 13.3459 18.6981 14.2255C19.0625 15.1052 19.25 16.0479 19.25 17C19.25 17.6904 18.6904 18.25 18 18.25C17.3096 18.25 16.75 17.6904 16.75 17C16.75 16.3762 16.6271 15.7586 16.3884 15.1823C16.1497 14.606 15.7998 14.0823 15.3588 13.6412C14.9177 13.2002 14.394 12.8503 13.8177 12.6116C13.2414 12.3729 12.6238 12.25 12 12.25C11.3762 12.25 10.7586 12.3729 10.1823 12.6116C9.60596 12.8503 9.08232 13.2002 8.64124 13.6412C8.20016 14.0823 7.85028 14.606 7.61157 15.1823C7.37286 15.7586 7.25 16.3762 7.25 17C7.25 17.6904 6.69036 18.25 6 18.25C5.30964 18.25 4.75 17.6904 4.75 17C4.75 16.0479 4.93753 15.1052 5.30187 14.2255C5.66622 13.3459 6.20025 12.5467 6.87348 11.8735C7.5467 11.2003 8.34593 10.6662 9.22554 10.3019ZM12 13.75C11.5732 13.75 11.1506 13.8341 10.7563 13.9974C10.362 14.1607 10.0037 14.4001 9.7019 14.7019C9.40011 15.0037 9.16072 15.362 8.99739 15.7563C8.83406 16.1506 8.75 16.5732 8.75 17C8.75 17.6904 9.30964 18.25 10 18.25C10.6904 18.25 11.25 17.6904 11.25 17C11.25 16.9015 11.2694 16.804 11.3071 16.713C11.3448 16.622 11.4 16.5393 11.4697 16.4697C11.5393 16.4 11.622 16.3448 11.713 16.3071C11.804 16.2694 11.9015 16.25 12 16.25C12.0985 16.25 12.196 16.2694 12.287 16.3071C12.378 16.3448 12.4607 16.4 12.5303 16.4697C12.6 16.5393 12.6552 16.622 12.6929 16.713C12.7306 16.804 12.75 16.9015 12.75 17C12.75 17.6904 13.3096 18.25 14 18.25C14.6904 18.25 15.25 17.6904 15.25 17C15.25 16.5732 15.1659 16.1506 15.0026 15.7563C14.8393 15.362 14.5999 15.0037 14.2981 14.7019C13.9963 14.4001 13.638 14.1607 13.2437 13.9974C12.8494 13.8341 12.4268 13.75 12 13.75Z" fill="#002B51"/>
</svg>
